X: 1
T: Furuboms Polska (polska e. Lisa Furubom)
R: hambo, polska
%S: s:2 b:11(5+6)
S: http://www.nyckelharpa.org/archive/written-music/american-allspel-list/ 2022/9/16-??
Z: 2022 John Chambers <jc:trillian.mit.edu>
M: 3/4
L: 1/8
K: Am	% and C
"^A"\
|: A2 (A>B) c>d | e2 e4 | B2 (B>d) c>B |\
[1,3 (B>A) (A<G) E>E :|[2,4 (B<A) A4 :|
"^B"\
|:   g2 (g>a) g>f | (f<e) e4 |\
[1,3 G2 (G>B) d>B | (c>B) (c>d) e>f :|\
[2,4 (G>F) (G>B) d>B | c2 c4 :|
